X:376
T:Christy Barry's
T:Sean Coughlan's #2
R:jig
C:Christy Barry
Z:id:hn-jig-376
M:6/8
K:G
G2A BGG | A2B d2e | ged BGG | AGA BGE |
G2A BGG | A2B d2e | ged BGG |1 AGF G2D :|2 AGF GBd ||
|: ~g3 gfg | a2g d2e | ged BGG | AGE GED |
G2A BGG | A2B d2e | ged BGG |1 AGF GBd :|2 AGF G2D ||
P:variations
|: DGG BAG | A2B d2e | ged BAG | ~A3 BGE |
DGG BAG | A2B d2e | ged BAG |1 AGF G2D :|2 AGF GBd ||
~g3 gfg | abg d2e | ged BGG | AGA GED |
~g3 gfg | abg d2e | ged BGG | AGF GBd |
~g3 gfg | abg d2e | ged BGG | AGA AGE |
DGG BGG | A2B d2e | ged BGG | AGF G2D ||

